images_elementary_svg/cmd/32/deletepage.svg

<svg height="32" width="32" xmlns="http://www.w3.org/2000/svg" xmlns:xlink="http://www.w3.org/1999/xlink"><linearGradient id="a" gradientTransform="matrix(.50842 0 0 .4913 43.485 12.69)" gradientUnits="userSpaceOnUse" x1="3.686" x2="2.93" y1="-4.226" y2="28.474"><stop offset="0" stop-color="#f8b17e"/><stop offset=".312" stop-color="#e35d4f"/><stop offset=".571" stop-color="#c6262e"/><stop offset="1" stop-color="#690b54"/></linearGradient><linearGradient id="b" gradientTransform="matrix(.87818 0 0 .88434 13.56 3.406)" gradientUnits="userSpaceOnUse" x1="1.004" x2=".228" y1="20.709" y2="-4.382"><stop offset="0" stop-color="#791235"/><stop offset="1" stop-color="#dd3b27"/></linearGradient><linearGradient id="c" gradientTransform="matrix(.53153 -.53097 .53153 .53097 -14.042 11.965)" gradientUnits="userSpaceOnUse" x1="36.011" x2="16.331" xlink:href="#d" y1="13.023" y2="32.702"/><linearGradient id="d"><stop offset="0" stop-color="#fff"/><stop offset="1" stop-color="#fff" stop-opacity="0"/></linearGradient><linearGradient id="e" gradientTransform="matrix(.53153 -.53097 .53153 .53097 -14.578 12.234)" gradientUnits="userSpaceOnUse" x1="28.449" x2="16.331" xlink:href="#d" y1="20.584" y2="32.702"/><linearGradient id="f"><stop offset="0"/><stop offset="1" stop-opacity="0"/></linearGradient><linearGradient id="g" gradientTransform="matrix(.56757 0 0 .72973 2.378 -2.514)" gradientUnits="userSpaceOnUse" x1="24" x2="24" y1="5.564" y2="43"><stop offset="0" stop-color="#fff"/><stop offset=".036" stop-color="#fff" stop-opacity=".235"/><stop offset=".951" stop-color="#fff" stop-opacity=".157"/><stop offset="1" stop-color="#fff" stop-opacity=".392"/></linearGradient><linearGradient id="h" gradientTransform="matrix(.62857 0 0 .6084 .914 -.535)" gradientUnits="userSpaceOnUse" x1="25.132" x2="25.132" y1=".985" y2="47.013"><stop offset="0" stop-color="#f4f4f4"/><stop offset="1" stop-color="#dbdbdb"/></linearGradient><radialGradient id="i" cx="605.714" cy="486.648" gradientTransform="matrix(.01566 0 0 .00824 17.61 25.98)" gradientUnits="userSpaceOnUse" r="117.143" xlink:href="#f"/><radialGradient id="j" cx="605.714" cy="486.648" gradientTransform="matrix(-.01566 0 0 .00824 14.39 25.98)" gradientUnits="userSpaceOnUse" r="117.143" xlink:href="#f"/><linearGradient id="k" gradientTransform="matrix(.04577 0 0 .00824 -.542 25.98)" gradientUnits="userSpaceOnUse" x1="302.857" x2="302.857" y1="366.648" y2="609.505"><stop offset="0" stop-opacity="0"/><stop offset=".5"/><stop offset="1" stop-opacity="0"/></linearGradient><linearGradient id="l" gradientTransform="matrix(.53064 0 0 .5897 39.27 -1.792)" gradientUnits="userSpaceOnUse" x1="-51.786" x2="-51.786" y1="50.786" y2="2.906"><stop offset="0" stop-opacity=".318"/><stop offset="1" stop-opacity=".24"/></linearGradient><path d="m4.95 29h22.1v2h-22.1z" fill="url(#k)" opacity=".15"/><path d="m4.95 29v2c-.807.004-1.95-.448-1.95-1s.9-1 1.95-1z" fill="url(#j)" opacity=".15"/><path d="m27.05 29v2c.807.004 1.95-.448 1.95-1s-.9-1-1.95-1z" fill="url(#i)" opacity=".15"/><path d="m5 1 22 .002v27.998h-22z" fill="url(#h)"/><g stroke-linejoin="round"><g fill="none"><path d="m26.5 28.5h-21v-27h21z" stroke="url(#g)" stroke-linecap="round"/><path d="m4.5.5 23 .002v28.998h-23z" stroke="url(#l)"/></g><g><path d="m21.5 17.8-5.5-5.303 5.29-5.557-3.814-3.44-5.448 5.294-5.558-5.294-3.97 3.568 5.558 5.406-5.558 5.32 3.97 3.706 5.552-5.56 5.565 5.56z" fill="url(#a)" stroke="url(#b)" stroke-width="1.386" transform="matrix(.7215 0 0 .7215 15.342 14.974)"/><g fill="none" stroke-linecap="round" stroke-width="1.752"><path d="m18.918 7.066-1.368-1.196-5.59 5.117-5.48-5.224-1.395 1.407" opacity=".4" stroke="url(#c)" transform="matrix(.7215 0 0 .7215 15.342 14.974)"/><path d="m19.043 17.973-4.22-4.29m-5.604-.288-4.365 4.265" opacity=".4" stroke="url(#e)" transform="matrix(.7215 0 0 .7215 15.342 14.974)"/></g></g></g></svg>

<svg xmlns="http://www.w3.org/2000/svg" xmlns:xlink="http://www.w3.org/1999/xlink" height="32" width="32"><defs><linearGradient xlink:href="#a" id="j" x1="3.686" y1="-4.226" x2="2.93" y2="28.474" gradientUnits="userSpaceOnUse"/><linearGradient id="a" gradientTransform="matrix(.50842 0 0 .4913 43.485 12.69)" gradientUnits="userSpaceOnUse" x1="10.714" x2="10.767" y1="3.629" y2="26.956"><stop offset="0" stop-color="#f8b17e"/><stop offset=".312" stop-color="#e35d4f"/><stop offset=".571" stop-color="#c6262e"/><stop offset="1" stop-color="#690b54"/></linearGradient><linearGradient id="k" gradientTransform="matrix(.87818 0 0 .88434 13.56 3.406)" gradientUnits="userSpaceOnUse" x1="1.004" x2=".228" y1="20.709" y2="-4.382"><stop offset="0" stop-color="#791235"/><stop offset="1" stop-color="#dd3b27"/></linearGradient><linearGradient id="l" gradientTransform="matrix(.53153 -.53097 .53153 .53097 -14.042 11.965)" gradientUnits="userSpaceOnUse" x1="36.011" x2="16.331" xlink:href="#b" y1="13.023" y2="32.702"/><linearGradient id="b"><stop offset="0" stop-color="#fff"/><stop offset="1" stop-color="#fff" stop-opacity="0"/></linearGradient><linearGradient id="m" gradientTransform="matrix(.53153 -.53097 .53153 .53097 -14.578 12.234)" gradientUnits="userSpaceOnUse" x1="28.449" x2="16.331" xlink:href="#b" y1="20.584" y2="32.702"/></defs><linearGradient id="c"><stop offset="0"/><stop offset="1" stop-opacity="0"/></linearGradient><linearGradient id="h" gradientTransform="matrix(.56757 0 0 .72973 2.378 -2.514)" gradientUnits="userSpaceOnUse" x1="24" x2="24" y1="5.564" y2="43"><stop offset="0" stop-color="#fff"/><stop offset=".036" stop-color="#fff" stop-opacity=".235"/><stop offset=".951" stop-color="#fff" stop-opacity=".157"/><stop offset="1" stop-color="#fff" stop-opacity=".392"/></linearGradient><linearGradient id="g" gradientTransform="matrix(.62857 0 0 .6084 .914 -.535)" gradientUnits="userSpaceOnUse" x1="25.132" x2="25.132" y1=".985" y2="47.013"><stop offset="0" stop-color="#f4f4f4"/><stop offset="1" stop-color="#dbdbdb"/></linearGradient><radialGradient id="f" cx="605.714" cy="486.648" gradientTransform="matrix(.01566 0 0 .00824 17.61 25.98)" gradientUnits="userSpaceOnUse" r="117.143" xlink:href="#c"/><radialGradient id="e" cx="605.714" cy="486.648" gradientTransform="matrix(-.01566 0 0 .00824 14.39 25.98)" gradientUnits="userSpaceOnUse" r="117.143" xlink:href="#c"/><linearGradient id="d" gradientTransform="matrix(.04577 0 0 .00824 -.542 25.98)" gradientUnits="userSpaceOnUse" x1="302.857" x2="302.857" y1="366.648" y2="609.505"><stop offset="0" stop-opacity="0"/><stop offset=".5"/><stop offset="1" stop-opacity="0"/></linearGradient><linearGradient id="i" gradientTransform="matrix(.53064 0 0 .5897 39.27 -1.792)" gradientUnits="userSpaceOnUse" x1="-51.786" x2="-51.786" y1="50.786" y2="2.906"><stop offset="0" stop-opacity=".318"/><stop offset="1" stop-opacity=".24"/></linearGradient><path d="M4.95 29h22.1v2H4.95z" fill="url(#d)" opacity=".15"/><path d="M4.95 29v2c-.807.004-1.95-.448-1.95-1s.9-1 1.95-1z" fill="url(#e)" opacity=".15"/><path d="M27.05 29v2c.807.004 1.95-.448 1.95-1s-.9-1-1.95-1z" fill="url(#f)" opacity=".15"/><path d="M5 1l22 .002V29H5V1z" fill="url(#g)"/><g fill="none" stroke-linejoin="round"><path d="M26.5 28.5h-21v-27h21z" stroke="url(#h)" stroke-linecap="round"/><path d="M4.5.5l23 .002V29.5h-23V.5z" stroke="url(#i)"/></g><g stroke-linejoin="round"><path d="M21.5 17.8L16 12.497l5.29-5.557-3.814-3.44-5.448 5.294L6.47 3.5 2.5 7.068l5.558 5.406-5.558 5.32L6.47 21.5l5.552-5.56 5.565 5.56z" transform="translate(15.342 14.974) scale(.7215)" fill="url(#j)" stroke="url(#k)" stroke-width="1.386"/><g fill="none" stroke-width="1.752" stroke-linecap="round"><path d="M18.918 7.066L17.55 5.87l-5.59 5.117-5.48-5.224L5.085 7.17" transform="translate(15.342 14.974) scale(.7215)" opacity=".4" stroke="url(#l)"/><path d="M19.043 17.973l-4.22-4.29m-5.604-.288L4.854 17.66" transform="translate(15.342 14.974) scale(.7215)" opacity=".4" stroke="url(#m)"/></g></g></svg>
